X:1
T:Shadow Theme
T:Final Fantasy 6
%%score { ( 1 5 ) | ( 2 3 4 ) }
L:1/8
M:3/4
K:G
V:1 treble nm="Piano"
V:5 treble 
V:2 bass 
V:3 bass 
V:4 bass 
V:1
 z6 | z6 | z6 | z3 z2 e | b3- b2 a | gf ef gd | e6- | e3 z2 e | b3- b2 a | gf ef Bd | e6- | %11
 e3 z2 b | d'3- d' b/^c'/d' | ^c'3 ^c'- ^c'2 | d'^c' b^c' fa | b3- b2 e | b3- b2 a | gf ef gd | %18
 e6- | e3 z2 z | E3- E EE | E6 | E3- E EE | z3 z2 e | b3- b2 a | gf ef gd | e6- | e3 z2 e | %28
 b3- b2 a | gf ef Bd | e6- | e3 z2 b | d'3- d' b/^c'/d' | ^c'3 ^c'- ^c'2 | d'^c' b^c' fa | %35
 b3- b2 e | b3- b2 a | gf ef gd | e6- | e3 z2 z | E3- E EE | E6 | E3- E EE | E3- E EE | E3- E EE | %45
 E6- | E6 |] %47
V:2
 E3- E EE | E3 z z2 | E3- E EE | E3 z z2 | E,3- E, E,F, | G,2 C, B,,2 D, | E,3- E,2 E, | E,6 | %8
 E,3- E, E,D, | C,2 G, F,2 B,, | E,3- E,2 E, | E,2 D^C A,B, | G,3- G, G,^G, | A,3- A,2 A, | %14
 G,2 G, F,2 A, | B,3 F,2 F, | E,2 E, B,2 B, | C3 B, F,D, | E,3- E, D^C | B,6 | z6 | z6 | z6 | z6 | %24
 E,3- E, E,F, | G,2 C, B,,2 D, | E,3- E,2 E, | E,6 | E,3- E, E,D, | E,3- E,2 E, | E,3- E,2 E, | %31
 E,2 D^C A,B, | G,3- G, G,^G, | A,3- A,2 A, | G,2 G, F,2 A, | B,3 F,2 F, | E,2 E, B,2 B, | %37
 C3 B, F,D, | E,3- E, D^C | B,6 | z6 | z6 | z6 | z6 | z6 | [E,-G,B,]6 | E,6 |] %47
V:3
 [E,G,B,]3 [E,G,B,]3 | [E,G,B,]3 [E,G,B,]3 | [E,G,B,]3 [E,G,B,]3 | [E,G,B,]3 [E,G,B,]3 | %4
 [G,B,]3 [G,B,]3 | [C,E,G,]3 [B,,D,F,]3 | [E,G,B,]3 [E,G,B,]3 | [E,G,B,]3 [E,G,B,]3 | %8
 [E,G,B,]3 [E,G,B,]3 | [C,E,G,]3 [B,,D,F,]3 | [E,G,B,]3 [E,G,B,]3 | [E,G,B,]3 [E,G,B,] z2 | %12
 [G,B,D]3 [G,B,D]3 | [A,^CE]3 [A,^CE]3 | [G,B,D]3 [F,A,E]3 | [B,^D]3 [B,^D]3 | %16
 [E,G,B,]3 [E,G,B,]3 | [C,E,G,]3 [B,,D,F,]3 | [E,G,B,]3 [E,G,B,]3 | [E,G,B,]3 [E,G,B,] z2 | %20
 [E,G,B,]3 [E,G,B,]3 | [E,G,B,]3 [E,G,B,]3 | [E,G,B,]3 [E,G,B,]3 | [E,G,B,]3 [E,G,B,]3 | %24
 [G,B,]3 [G,B,]3 | [C,E,G,]3 [B,,D,F,]3 | [E,G,B,]3 [E,G,B,]3 | [E,G,B,]3 [E,G,B,]3 | %28
 [E,G,B,]3 [E,G,B,]3 | [E,G,B,]3 [E,G,B,]3 | [E,G,B,]3 [E,G,B,]3 | [E,G,B,]3 [E,G,B,] z2 | %32
 [G,B,D]3 [G,B,D]3 | [A,^CE]3 [A,^CE]3 | [G,B,D]3 [F,A,E]3 | [B,^D]3 [B,^D]3 | %36
 [E,G,B,]3 [E,G,B,]3 | [C,E,G,]3 [B,,D,F,]3 | [E,G,B,]3 [E,G,B,]3 | [E,G,B,]3 [E,G,B,] z2 | %40
 [E,G,B,]3 [E,G,B,]3 | [E,G,B,]3 [E,G,B,]3 | [E,G,B,]3 [E,G,B,]3 | [E,G,B,]3 [E,G,B,]3 | %44
 [E,G,B,]3 [E,G,B,]3 | x6 | x6 |] %47
V:4
 x6 | x6 | x6 | x6 | E,E, E,E, E,E, | C,E, E,B,, E,E, | E,E, E, z E, z | E,E, E, z E,E, | %8
 E,E, E,E, E,E, | E,E, E,E, E,E, | E,E, E,E, E,E, | E,E, E, z B,B, | E,E, E,E, E,E, | %13
 E,E, E,E, E,E, | E, z E,E, E,E, | E,E, E,E, E,E, | E,E, E,E, E,E, | E,E, E,E, E,E, | %18
 E,E, E,E, E,E, | E,E, E,E, E,E, | E,E, E,E, E,E, | E,E, E,E, [B,,E,][D,E,] | E,E, E,E, E,E, | %23
 E,E, E,B, B,B, | E,E, E,E, E,E, | C,E, E,B,, E,E, | E,E, E, z E, z | E,E, E, z E,E, | %28
 E,E, E,E, E,E, | E,E, E,E, E,E, | E,E, E,E, E,E, | E,E, E, z B,B, | E,E, E,E, E,E, | %33
 E,E, E,E, E,E, | E, z E,E, E,E, | E,E, E,E, E,E, | E,E, E,E, E,E, | E,E, E,E, E,E, | %38
 E,E, E,E, E,E, | E,E, E,E, E,E, | E,E, E,E, E,E, | E,E, E,E, [B,,E,][D,E,] | E,E, E,E, E,E, | %43
 E,E, E,E, E,E, | E,E, E,E, E,E, | x6 | x6 |] %47
V:5
 x6 | x6 | x6 | x6 | x6 | x6 | x6 | x6 | x6 | x6 | x6 | x6 | x6 | x6 | x6 | x6 | x6 | x6 | x6 | %19
 x6 | x6 | x6 | x6 | E6 | x6 | x6 | x6 | x6 | x6 | x6 | x6 | x6 | x6 | x6 | x6 | x6 | x6 | x6 | %38
 x6 | x6 | x6 | x6 | x6 | x6 | x6 | x6 | x6 |] %47

